svgs/regular/cloud-showers-heavy.svg

<svg xmlns="http://www.w3.org/2000/svg" viewBox="0 0 512 512"><!-- Font Awesome Pro 6.0.0-alpha2 by @fontawesome - https://fontawesome.com License - https://fontawesome.com/license (Commercial License) --><path d="M410.758 104.25C397.258 61.75 358.008 32 312.008 32C298.508 32 285.258 34.625 272.758 39.75C250.258 14.5 218.383 0 184.008 0C120.008 0 67.633 50.25 64.258 113.375C25.633 130.375 0.008 168.5 0.008 212C0.008 271.5 48.383 320 108.008 320H404.008C463.633 320 512.008 271.5 512.008 212C512.008 154.75 467.133 107.75 410.758 104.25ZM404.008 272H108.008C74.883 272 48.008 245.125 48.008 212C48.008 184 67.133 160 94.383 153.75L115.133 148.875L112.383 124C112.258 122.75 112.008 121.375 112.008 120C112.008 80.25 144.258 48 184.008 48C209.258 48 232.258 61.125 245.383 83.125L258.758 105.25L279.758 90.25C289.383 83.625 300.508 80 312.008 80C340.633 80 364.383 101.75 367.258 130.375L369.508 152H404.008C437.133 152 464.008 178.875 464.008 212S437.133 272 404.008 272ZM198.789 353.938C186.617 348.719 172.492 354.344 167.274 366.531L119.274 478.531C114.055 490.719 119.696 504.844 131.883 510.063C134.961 511.375 138.164 512 141.321 512C150.633 512 159.492 506.562 163.399 497.469L211.399 385.469C216.617 373.281 210.977 359.156 198.789 353.938ZM81.461 353.938C69.274 348.719 55.164 354.344 49.946 366.531L1.946 478.531C-3.273 490.719 2.367 504.844 14.555 510.063C17.633 511.375 20.836 512 23.992 512C33.305 512 42.164 506.562 46.071 497.469L94.071 385.469C99.289 373.281 93.649 359.156 81.461 353.938ZM316.133 353.938C303.946 348.719 289.836 354.344 284.617 366.531L236.617 478.531C231.399 490.719 237.039 504.844 249.227 510.063C252.305 511.375 255.508 512 258.664 512C267.977 512 276.836 506.562 280.742 497.469L328.742 385.469C333.961 373.281 328.321 359.156 316.133 353.938ZM433.461 353.938C421.289 348.719 407.18 354.344 401.946 366.531L353.946 478.531C348.727 490.719 354.367 504.844 366.555 510.063C369.633 511.375 372.836 512 375.992 512C385.305 512 394.164 506.562 398.071 497.469L446.071 385.469C451.289 373.281 445.649 359.156 433.461 353.938Z"/></svg>

<svg xmlns="http://www.w3.org/2000/svg" viewBox="0 0 512 512"><!--! Font Awesome Pro 6.0.0-alpha3 by @fontawesome - https://fontawesome.com License - https://fontawesome.com/license (Commercial License) --><path d="M410.8 104.3C397.3 61.75 358 32 312 32c-13.5 0-26.75 2.625-39.25 7.75C250.3 14.5 218.4 0 184 0c-64 0-116.4 50.25-119.8 113.4C25.63 130.4 0 168.5 0 212C0 271.5 48.38 320 108 320h296C463.6 320 512 271.5 512 212C512 154.8 467.1 107.8 410.8 104.3zM404 272h-296C74.88 272 48 245.1 48 212C48 184 67.13 160 94.38 153.8l20.75-4.875L112.4 124C112.3 122.8 112 121.4 112 120c0-39.75 32.25-72 72-72c25.25 0 48.25 13.12 61.38 35.13l13.38 22.12l21-15C289.4 83.63 300.5 80 312 80c28.62 0 52.38 21.75 55.25 50.38L369.5 152H404c33.13 0 60 26.88 60 60S437.1 272 404 272zM198.8 353.9c-12.17-5.219-26.3 .4062-31.52 12.59l-47.1 112c-5.219 12.19 .4217 26.31 12.61 31.53C134.1 511.4 138.2 512 141.3 512c9.312 0 18.17-5.438 22.08-14.53l47.1-112C216.6 373.3 210.1 359.2 198.8 353.9zM81.46 353.9c-12.19-5.219-26.3 .4062-31.52 12.59l-47.1 112c-5.219 12.19 .4217 26.31 12.61 31.53C17.63 511.4 20.83 512 23.99 512c9.312 0 18.17-5.438 22.08-14.53l47.1-112C99.29 373.3 93.65 359.2 81.46 353.9zM316.1 353.9c-12.19-5.219-26.3 .4062-31.52 12.59l-47.1 112c-5.219 12.19 .4218 26.31 12.61 31.53C252.3 511.4 255.5 512 258.7 512c9.312 0 18.17-5.438 22.08-14.53l47.1-112C333.1 373.3 328.3 359.2 316.1 353.9zM433.5 353.9c-12.17-5.219-26.28 .4062-31.52 12.59l-47.1 112c-5.219 12.19 .4218 26.31 12.61 31.53C369.6 511.4 372.8 512 375.1 512c9.312 0 18.17-5.438 22.08-14.53l47.1-112C451.3 373.3 445.6 359.2 433.5 353.9z"/></svg>
